Landie/img/intro/intro-03.svg

<svg width="445" height="313" viewBox="0 0 445 313" fill="none" xmlns="http://www.w3.org/2000/svg">
<path d="M167 304.935C246.529 304.935 311 240.464 311 160.935C311 81.4058 246.529 16.9348 167 16.9348C87.471 16.9348 23 81.4058 23 160.935C23 240.464 87.471 304.935 167 304.935Z" fill="#F2F2F2"/>
<path d="M190.108 182.892C158.401 231.769 167.089 293.935 167.089 293.935C167.089 293.935 227.184 276.855 258.892 227.978C290.599 179.1 281.911 116.935 281.911 116.935C281.911 116.935 221.816 134.015 190.108 182.892Z" fill="#3F3D56"/>
<path d="M166.991 292.935C166.991 292.935 166.215 292.812 164.786 292.524C163.646 292.294 162.077 291.965 160.16 291.513C143.029 287.493 97.4849 273.904 67.7083 238.176C30.4401 193.438 32.0095 130.935 32.0095 130.935C32.0095 130.935 88.9938 140.15 126.543 180.326C128.17 182.052 129.753 183.841 131.292 185.694C163.72 224.62 166.743 276.995 166.983 289.942C167.016 291.883 166.991 292.935 166.991 292.935Z" fill="#222F65"/>
<path fill-rule="evenodd" clip-rule="evenodd" d="M143.892 182.892C175.599 231.769 166.911 293.935 166.911 293.935C166.911 293.935 106.816 276.855 75.1083 227.978C43.4009 179.1 52.0888 116.935 52.0888 116.935C52.0888 116.935 112.184 134.015 143.892 182.892Z" stroke="#3F3D56" stroke-width="2"/>
<path opacity="0.1" d="M167 290.991C166.16 292.006 165.419 292.873 164.81 293.582C163.459 295.126 162.693 295.935 162.693 295.935C162.693 295.935 161.763 294.763 160.199 292.567C151.61 280.566 123.984 237.894 126.117 188.603C126.232 186.019 126.422 183.463 126.685 180.935C128.307 182.668 129.886 184.465 131.42 186.325C163.747 225.406 166.761 277.991 167 290.991Z" fill="black"/>
<path d="M214.883 192.216C212.355 250.482 168.922 295.935 168.922 295.935C168.922 295.935 129.588 246.92 132.117 188.654C134.645 130.388 178.078 84.9348 178.078 84.9348C178.078 84.9348 217.412 133.95 214.883 192.216Z" fill="#222F65"/>
<path d="M169 293.935L178 86.9348" stroke="#3F3D56" stroke-width="2"/>
<path d="M222.5 312.935C345.383 312.935 445 306.667 445 298.935C445 291.203 345.383 284.935 222.5 284.935C99.6166 284.935 0 291.203 0 298.935C0 306.667 99.6166 312.935 222.5 312.935Z" fill="#3F3D56"/>
<path d="M37 293.935V237.935V293.935Z" fill="#3F3D56"/>
<path d="M37 293.935V237.935" stroke="#3F3D56" stroke-width="2"/>
<path d="M37 245.935C41.4183 245.935 45 242.353 45 237.935C45 233.517 41.4183 229.935 37 229.935C32.5817 229.935 29 233.517 29 237.935C29 242.353 32.5817 245.935 37 245.935Z" fill="#3F3D56"/>
<path d="M37 272.935C37 272.935 35.8837 248.303 13 251.166L37 272.935Z" fill="#3F3D56"/>
<path d="M228 202.935V46.9348V202.935Z" fill="#3F3D56"/>
<path d="M228 202.935V46.9348" stroke="#3F3D56" stroke-width="2"/>
<path d="M228 58.9348C234.075 58.9348 239 54.0099 239 47.9348C239 41.8597 234.075 36.9348 228 36.9348C221.925 36.9348 217 41.8597 217 47.9348C217 54.0099 221.925 58.9348 228 58.9348Z" fill="#3F3D56"/>
<path d="M228 91.9348C228 91.9348 226.465 58.3464 195 62.2506L228 91.9348Z" fill="#3F3D56"/>
<path d="M358.286 116.935L348.909 134.57C348.909 134.57 281.108 147.526 289.763 167.68C298.419 187.834 308.156 217.345 313.205 216.625C318.254 215.906 346.024 200.07 347.106 195.392C348.188 190.713 322.221 168.76 322.221 168.76L365.138 160.482C365.138 160.482 371.269 189.274 363.335 209.068C355.401 228.862 350.712 282.486 356.122 283.206C361.531 283.926 375.236 288.244 381.367 284.286C387.498 280.327 390.383 193.592 390.383 193.592C390.383 193.592 403.366 136.729 395.432 130.251C387.498 123.773 358.286 116.935 358.286 116.935Z" fill="#2F2E41"/>
<path d="M372.942 275.192C372.942 275.192 364.564 270.768 362.8 274.307C362.8 274.307 364.123 284.925 358.831 286.252C353.539 287.579 351.334 296.869 358.831 297.754C366.327 298.639 371.178 295.985 373.824 295.985C376.47 295.985 373.824 286.694 373.824 286.694L372.942 275.192Z" fill="#2F2E41"/>
<path d="M332.965 202.77C332.965 202.77 323.836 200.209 322.855 204.055C322.855 204.055 326.383 214.189 321.485 216.614C316.586 219.039 316.384 228.619 323.905 227.896C331.426 227.172 335.614 223.539 338.203 222.977C340.791 222.416 336.248 213.865 336.248 213.865L332.965 202.77Z" fill="#2F2E41"/>
<path d="M378.395 54.7935C378.395 54.7935 378.752 68.2235 376.258 69.3124C373.765 70.4013 390.15 76.9348 390.15 76.9348L393 71.8532C393 71.8532 389.794 53.7046 390.507 52.2527C391.219 50.8008 378.395 54.7935 378.395 54.7935Z" fill="#9F616A"/>
<path d="M384 57.9348C396.15 57.9348 406 48.0851 406 35.9348C406 23.7845 396.15 13.9348 384 13.9348C371.85 13.9348 362 23.7845 362 35.9348C362 48.0851 371.85 57.9348 384 57.9348Z" fill="#2F2E41"/>
<path d="M386 23.9348C390.971 23.9348 395 19.9054 395 14.9348C395 9.96425 390.971 5.93481 386 5.93481C381.029 5.93481 377 9.96425 377 14.9348C377 19.9054 381.029 23.9348 386 23.9348Z" fill="#2F2E41"/>
<path d="M373.887 9.93481C373.887 5.32724 377.389 1.46386 382 0.983477C381.687 0.951137 381.372 0.934895 381.057 0.934814C376.055 0.934814 372 4.96425 372 9.93481C372 14.9054 376.055 18.9348 381.057 18.9348C381.372 18.9347 381.687 18.9185 382 18.8862C377.389 18.4058 373.887 14.5424 373.887 9.93481Z" fill="#2F2E41"/>
<path d="M383 61.9348C391.284 61.9348 398 55.2191 398 46.9348C398 38.6505 391.284 31.9348 383 31.9348C374.716 31.9348 368 38.6505 368 46.9348C368 55.2191 374.716 61.9348 383 61.9348Z" fill="#9F616A"/>
<path d="M394.251 66.7442C394.251 66.7442 381.297 70.6845 374.82 66.7442C368.343 62.8039 352.87 74.2667 350.351 79.2816C347.832 84.2966 359.706 89.3116 359.706 89.3116C359.706 89.3116 356.316 98.9959 357.008 103.819C357.727 108.834 356.468 119.043 356.468 119.043C356.468 119.043 388.258 139.893 395.33 130.506C396.41 129.073 405.406 95.4012 405.406 95.4012L418 82.8637C418 82.8637 410.084 71.4009 405.406 70.3263C400.728 69.2517 394.251 66.7442 394.251 66.7442Z" fill="#D0CDE1"/>
<path d="M306.937 139.935C306.937 139.935 282.684 152.773 287.677 156.441C292.671 160.109 313 142.136 313 142.136L306.937 139.935Z" fill="#9F616A"/>
<path d="M402.922 130.873C402.922 130.873 391.927 123.157 390.156 127.015C388.386 130.873 402.195 139.562 405.103 136.162C408.01 132.762 402.922 130.873 402.922 130.873Z" fill="#9F616A"/>
<path d="M411.768 77.9348L418.181 81.9231C418.181 81.9231 439.914 112.379 432.433 119.268C424.951 126.157 405.712 139.935 405.712 139.935C405.712 139.935 399.299 130.508 401.436 130.145C403.574 129.783 420.675 115.28 420.675 115.28L405.712 86.9991L411.768 77.9348Z" fill="#D0CDE1"/>
<path d="M354.179 76.9348L349.513 78.7453L337.308 100.834L305 140.303C305 140.303 309.308 147.183 312.897 145.734C316.487 144.286 343.41 113.869 343.41 113.869L361 86.3495L354.179 76.9348Z" fill="#D0CDE1"/>
<path d="M384.5 37.9348C393.06 37.9348 400 33.9054 400 28.9348C400 23.9643 393.06 19.9348 384.5 19.9348C375.94 19.9348 369 23.9643 369 28.9348C369 33.9054 375.94 37.9348 384.5 37.9348Z" fill="#2F2E41"/>
<rect x="282" y="223.935" width="71" height="71" fill="#222F65"/>
<path fill-rule="evenodd" clip-rule="evenodd" d="M330.867 273.344C338.301 273.344 343 267.021 343 256.99C343 243.344 332.546 233.935 317.46 233.935C301.766 233.935 291 244.521 291 259.941C291 275.74 301.549 285.92 318.029 285.934C320.885 285.948 323.733 285.639 326.52 285.013C327.65 284.74 328.356 283.615 328.11 282.479C327.863 281.342 326.755 280.611 325.612 280.83C323.181 281.258 320.715 281.467 318.246 281.453C304.691 281.453 295.983 273.141 295.983 260.117C295.983 247.378 304.785 238.375 317.135 238.375C329.621 238.375 338.071 245.916 338.071 257.193C338.071 264.26 335.688 268.808 331.936 268.808C329.77 268.808 328.565 267.495 328.565 265.316V247.811H323.161V251.575H322.62C321.374 248.826 318.544 247.148 315.213 247.148C308.726 247.148 304.284 252.414 304.284 259.982C304.284 267.861 308.699 273.154 315.307 273.154C319.018 273.154 321.78 271.435 323.121 268.294H323.662C324.164 271.313 327.061 273.344 330.867 273.344ZM316.309 268.145C312.477 268.145 310.121 265.113 310.121 260.104C310.121 255.081 312.436 252.13 316.377 252.13C320.345 252.13 322.891 255.176 322.891 260.104C322.891 265.031 320.345 268.145 316.309 268.145Z" fill="white"/>
</svg>

<svg width="445" height="313" fill="none" xmlns="http://www.w3.org/2000/svg"><path d="M167 304.935c79.529 0 144-64.471 144-144 0-79.53-64.471-144-144-144s-144 64.47-144 144c0 79.529 64.471 144 144 144z" fill="#F2F2F2"/><path d="M190.108 182.892c-31.707 48.877-23.019 111.043-23.019 111.043s60.095-17.08 91.803-65.957c31.707-48.878 23.019-111.043 23.019-111.043s-60.095 17.08-91.803 65.957z" fill="#3F3D56"/><path d="M166.991 292.935s-.776-.123-2.205-.411a144.21 144.21 0 01-4.626-1.011c-17.131-4.02-62.675-17.609-92.452-53.337C30.44 193.438 32.01 130.935 32.01 130.935s56.984 9.215 94.533 49.391a114.133 114.133 0 014.749 5.368c32.428 38.926 35.451 91.301 35.691 104.248.033 1.941.008 2.993.008 2.993z" fill="#222F65"/><path clip-rule="evenodd" d="M143.892 182.892c31.707 48.877 23.019 111.043 23.019 111.043s-60.095-17.08-91.803-65.957c-31.707-48.878-23.02-111.043-23.02-111.043s60.096 17.08 91.804 65.957z" stroke="#3F3D56" stroke-width="2"/><path opacity=".1" d="M167 290.991a180.433 180.433 0 01-2.19 2.591c-1.351 1.544-2.117 2.353-2.117 2.353s-.93-1.172-2.494-3.368c-8.589-12.001-36.215-54.673-34.082-103.964.115-2.584.305-5.14.568-7.668a114.462 114.462 0 014.735 5.39c32.327 39.081 35.341 91.666 35.58 104.666z" fill="#000"/><path d="M214.883 192.216c-2.528 58.266-45.961 103.719-45.961 103.719s-39.334-49.015-36.805-107.281c2.528-58.266 45.961-103.72 45.961-103.72s39.334 49.016 36.805 107.282z" fill="#222F65"/><path d="M169 293.935l9-207" stroke="#3F3D56" stroke-width="2"/><path d="M222.5 312.935c122.883 0 222.5-6.268 222.5-14s-99.617-14-222.5-14S0 291.203 0 298.935s99.617 14 222.5 14zm-185.5-19v-56 56z" fill="#3F3D56"/><path d="M37 293.935v-56" stroke="#3F3D56" stroke-width="2"/><path d="M37 245.935a8 8 0 100-16 8 8 0 000 16zm0 27s-1.116-24.632-24-21.769l24 21.769zm191-70v-156 156z" fill="#3F3D56"/><path d="M228 202.935v-156" stroke="#3F3D56" stroke-width="2"/><path d="M228 58.935c6.075 0 11-4.925 11-11s-4.925-11-11-11-11 4.925-11 11 4.925 11 11 11zm0 33s-1.535-33.589-33-29.684l33 29.684z" fill="#3F3D56"/><path d="M358.286 116.935l-9.377 17.635s-67.801 12.956-59.146 33.11c8.656 20.154 18.393 49.665 23.442 48.945 5.049-.719 32.819-16.555 33.901-21.233 1.082-4.679-24.885-26.632-24.885-26.632l42.917-8.278s6.131 28.792-1.803 48.586c-7.934 19.794-12.623 73.418-7.213 74.138 5.409.72 19.114 5.038 25.245 1.08 6.131-3.959 9.016-90.694 9.016-90.694s12.983-56.863 5.049-63.341c-7.934-6.478-37.146-13.316-37.146-13.316z" fill="#2F2E41"/><path d="M372.942 275.192s-8.378-4.424-10.142-.885c0 0 1.323 10.618-3.969 11.945s-7.497 10.617 0 11.502c7.496.885 12.347-1.769 14.993-1.769 2.646 0 0-9.291 0-9.291l-.882-11.502zm-39.977-72.422s-9.129-2.561-10.11 1.285c0 0 3.528 10.134-1.37 12.559-4.899 2.425-5.101 12.005 2.42 11.282 7.521-.724 11.709-4.357 14.298-4.919 2.588-.561-1.955-9.112-1.955-9.112l-3.283-11.095z" fill="#2F2E41"/><path d="M378.395 54.794s.357 13.43-2.137 14.518c-2.493 1.09 13.892 7.623 13.892 7.623l2.85-5.082s-3.206-18.148-2.493-19.6c.712-1.452-12.112 2.54-12.112 2.54z" fill="#9F616A"/><path d="M384 57.935c12.15 0 22-9.85 22-22s-9.85-22-22-22-22 9.85-22 22 9.85 22 22 22z" fill="#2F2E41"/><path d="M386 23.935a9 9 0 009-9 9 9 0 00-9-9 9 9 0 00-9 9 9 9 0 009 9z" fill="#2F2E41"/><path d="M373.887 9.935c0-4.608 3.502-8.471 8.113-8.952a9.202 9.202 0 00-.943-.048c-5.002 0-9.057 4.03-9.057 9s4.055 9 9.057 9c.315 0 .63-.016.943-.049-4.611-.48-8.113-4.344-8.113-8.951z" fill="#2F2E41"/><path d="M383 61.935c8.284 0 15-6.716 15-15 0-8.285-6.716-15-15-15-8.284 0-15 6.716-15 15 0 8.284 6.716 15 15 15z" fill="#9F616A"/><path d="M394.251 66.744s-12.954 3.94-19.431 0-21.95 7.523-24.469 12.538c-2.519 5.015 9.355 10.03 9.355 10.03s-3.39 9.684-2.698 14.507c.719 5.015-.54 15.224-.54 15.224s31.79 20.85 38.862 11.463c1.08-1.433 10.076-35.105 10.076-35.105L418 82.864s-7.916-11.463-12.594-12.538c-4.678-1.074-11.155-3.582-11.155-3.582z" fill="#D0CDE1"/><path d="M306.937 139.935s-24.253 12.838-19.26 16.506c4.994 3.668 25.323-14.305 25.323-14.305l-6.063-2.201zm95.985-9.062s-10.995-7.716-12.766-3.858c-1.77 3.858 12.039 12.547 14.947 9.147 2.907-3.4-2.181-5.289-2.181-5.289z" fill="#9F616A"/><path d="M411.768 77.935l6.413 3.988s21.733 30.456 14.252 37.345c-7.482 6.889-26.721 20.667-26.721 20.667s-6.413-9.427-4.276-9.79c2.138-.362 19.239-14.865 19.239-14.865L405.712 87l6.056-9.065zm-57.589-1l-4.666 1.81-12.205 22.089L305 140.303s4.308 6.88 7.897 5.431c3.59-1.448 30.513-31.865 30.513-31.865L361 86.349l-6.821-9.414z" fill="#D0CDE1"/><path d="M384.5 37.935c8.56 0 15.5-4.03 15.5-9s-6.94-9-15.5-9c-8.56 0-15.5 4.03-15.5 9s6.94 9 15.5 9z" fill="#2F2E41"/><path fill="#222F65" d="M282 223.935h71v71h-71z"/><path fill-rule="evenodd" clip-rule="evenodd" d="M330.867 273.344c7.434 0 12.133-6.323 12.133-16.354 0-13.646-10.454-23.055-25.54-23.055-15.694 0-26.46 10.586-26.46 26.006 0 15.799 10.549 25.979 27.029 25.993a37.894 37.894 0 008.491-.921 2.141 2.141 0 00-.908-4.183 41.143 41.143 0 01-7.366.623c-13.555 0-22.263-8.312-22.263-21.336 0-12.739 8.802-21.742 21.152-21.742 12.486 0 20.936 7.541 20.936 18.818 0 7.067-2.383 11.615-6.135 11.615-2.166 0-3.371-1.313-3.371-3.492v-17.505h-5.404v3.764h-.541c-1.246-2.749-4.076-4.427-7.407-4.427-6.487 0-10.929 5.266-10.929 12.834 0 7.879 4.415 13.172 11.023 13.172 3.711 0 6.473-1.719 7.814-4.86h.541c.502 3.019 3.399 5.05 7.205 5.05zm-14.558-5.199c-3.832 0-6.188-3.032-6.188-8.041 0-5.023 2.315-7.974 6.256-7.974 3.968 0 6.514 3.046 6.514 7.974 0 4.927-2.546 8.041-6.582 8.041z" fill="#fff"/></svg>
